assets/awsapplicationdiscoveryserviceawsagentlesscollector/original.svg

<svg height="48" viewBox="0 0 48 48" width="48" xmlns="http://www.w3.org/2000/svg"><path d="m33 26.999a6.01 6.01 0 0 0 -6-6.003c-3.309 0-6 2.693-6 6.003a6.007 6.007 0 0 0 6 6.001c3.309 0 6-2.692 6-6.002m2 0c0 4.414-3.589 8.002-8 8.002s-8-3.59-8-8.002 3.589-8.003 8-8.003 8 3.59 8 8.003m8.548 14.146-6.908-7.038a12 12 0 0 1 -2.373 2.417l6.948 7.02c.599.61 1.657.585 2.281-.05.651-.66.675-1.714.052-2.35m-16.548-4.143c5.509 0 9.99-4.485 9.99-10s-4.481-10-9.99-10-9.991 4.486-9.991 10 4.482 10 9.991 10m17.976 2.743c1.381 1.409 1.357 3.72-.056 5.155a3.64 3.64 0 0 1 -2.61 1.102 3.5 3.5 0 0 1 -2.518-1.05l-7.245-7.321a11.9 11.9 0 0 1 -5.547 1.371c-6.612 0-11.991-5.382-11.991-12 0-6.615 5.379-12 11.991-12 6.611 0 11.99 5.385 11.99 12 0 1.924-.465 3.736-1.272 5.349zm-15.976-25.743h13v-2h-13zm0-5h13v-2h-13zm15.472-7h-17.943c-.842 0-1.529.687-1.529 1.529v9.47h2v-8.999h17l-.003 33h.003c1.104 0 2-.898 2-2.002v-31.471a1.53 1.53 0 0 0 -1.528-1.527m-38.472 12h13v-2h-13zm0-5h13v-2h-13zm-2 28h14v2h-14.471a1.53 1.53 0 0 1 -1.529-1.528v-33.944a1.53 1.53 0 0 1 1.528-1.528h17.944a1.53 1.53 0 0 1 1.528 1.528v9.472h-2v-9h-17z" fill="#01a88d" fill-rule="evenodd"/></svg>

<svg xmlns="http://www.w3.org/2000/svg" width="48" height="48" viewBox="0 0 48 48"><title>Icon-Resource/Migration-and-Transfer/Res_AWS-Application-Discovery-Service_AWS-Agentless-Collector_48</title><g id="Icon-Resource/Migration-and-Transfer/Res_AWS-Application-Discovery-Service_AWS-Agentless-Collector_48" fill="none" fill-rule="evenodd" stroke="none" stroke-width="1"><path id="Fill-1" fill="#01a88d" d="M33 26.999a6.01 6.01 0 0 0-6-6.003c-3.309 0-6 2.693-6 6.003A6.007 6.007 0 0 0 27 33c3.309 0 6-2.692 6-6.002m2 0C35 31.412 31.411 35 27 35s-8-3.59-8-8.002 3.589-8.003 8-8.003 8 3.59 8 8.003m8.548 14.146-6.908-7.038a12 12 0 0 1-2.373 2.417l6.948 7.02c.599.61 1.657.585 2.281-.05.651-.66.675-1.714.052-2.35M27 37c5.509 0 9.99-4.485 9.99-10S32.509 17 27 17s-9.991 4.486-9.991 10S21.491 37 27 37m17.976 2.743c1.381 1.409 1.357 3.72-.056 5.155A3.64 3.64 0 0 1 42.31 46a3.5 3.5 0 0 1-2.518-1.05l-7.245-7.321A11.9 11.9 0 0 1 27 39c-6.612 0-11.991-5.382-11.991-12 0-6.615 5.379-12 11.991-12 6.611 0 11.99 5.385 11.99 12 0 1.924-.465 3.736-1.272 5.349zM29 14h13v-2H29zm0-5h13V7H29zm15.472-7H26.529C25.687 2 25 2.687 25 3.529v9.47h2V4h17l-.003 33H44c1.104 0 2-.898 2-2.002V3.527A1.53 1.53 0 0 0 44.472 2M6 14h13v-2H6zm0-5h13V7H6zM4 37h14v2H3.529A1.53 1.53 0 0 1 2 37.472V3.528A1.53 1.53 0 0 1 3.528 2h17.944A1.53 1.53 0 0 1 23 3.528V13h-2V4H4z"/></g></svg>
